dist/img/svg/topics.svg

<svg id="topics" width="38" height="37" viewBox="0 0 38 37" fill="none" xmlns="http://www.w3.org/2000/svg">
<path d="M2.48164 7.37525C0.973267 8.98065 0.116327 11.1199 0.0659185 13.4069L0 36.9768L24.3976 36.9995H24.4092H24.4208C26.3713 36.9427 28.5853 36.7155 30.2139 35.4812C31.8464 34.2469 32.6878 32.1606 32.7847 29.105L32.7886 29.0406L32.8584 4.85734L8.47634 4.79297C6.17695 4.79676 4.04817 5.71683 2.48164 7.37525ZM31.4819 28.9536L31.478 29.0558C31.3074 34.4816 28.8529 35.5872 24.386 35.7235L1.30674 35.7046L1.36878 13.4296C1.45796 9.31006 4.57939 6.07654 8.47634 6.06518L31.5439 6.12576L31.4819 28.9536Z" fill="#368CBF"/>
<path d="M8.48779 0V1.27221H36.6931V28.814H37.9999V0H8.48779Z" fill="#368CBF"/>
<path d="M7.8208 28.3828H25.0914V29.655H7.8208V28.3828Z" fill="#368CBF"/>
<path d="M7.8208 20.3213H25.0914V21.5935H7.8208V20.3213Z" fill="#368CBF"/>
<path d="M7.8208 11.7793H25.0914V13.0515H7.8208V11.7793Z" fill="#368CBF"/>
</svg>

<svg id="topics" width="38" height="37" viewBox="0 0 38 37" fill="none" xmlns="http://www.w3.org/2000/svg"><path d="M2.482 7.375C.973 8.981.116 11.12.066 13.407L0 36.977 24.398 37h.023c1.95-.057 4.164-.285 5.793-1.519 1.632-1.234 2.474-3.32 2.57-6.376l.005-.064.07-24.184-24.383-.064a8.187 8.187 0 00-5.994 2.582zm29 21.579l-.004.102c-.17 5.426-2.625 6.531-7.092 6.668l-23.08-.02.063-22.274c.089-4.12 3.21-7.353 7.107-7.365l23.068.06-.062 22.829z" fill="#368CBF"/><path d="M8.488 0v1.272h28.205v27.542H38V0H8.488zM7.82 28.383h17.271v1.272H7.821v-1.272zm0-8.062h17.271v1.272H7.821v-1.272z" fill="#368CBF"/><path d="M7.82 11.78h17.271v1.272H7.821v-1.273z" fill="#368CBF"/></svg>
